X: 39197
T: Swiss
R: mazurka
M: 3/4
K: Dmajor
|:A>f d2 d2|A>f d2 d2|A>f e2 a2|a>g f>e d2|
A>f d2 d>c|d>f d2 d2|A>f e2 a2|c2 d4:|
|:e>f (3gag e>f|g>e (3fgf d>e|f>d (3efe c>d|e>c d2 (3efg|
f>a g>f e2|g2 f>e d2|f2 e>^d e2|a2 d4:|

